!!!OTL: 317. Der Gesang.
!!!ODT: 1804 (nach)
!!!ARE: Europa, Mitteleuropa, Deutschland
!!!SCT: B0317
!!!TXL: @@DE
!!!YEM: Copyright 1995, estate of Helmut Schaffrath.
**kern	**text
*ICvox	*
*Ivox	*
*M4/4	*
*met(c)	*
*clefG2	*
*k[b-e-a-]	*
*E-:	*
!LO:TX:a:t=Mäßig.	!
{8g	Wo
8a-	man
=1	=1
8ccL	ſin-
8b-J	.
4g	-get,
8b-	laß
8b-	dich
8ee-	ru-
8dd	-hig
=2	=2
4dd	nie-
4cc	-der,
4r}	.
{8cc	oh-
8cc	-ne
=3	=3
4.b-	Furcht
8g	was
8f	man
8f	im
8cc	Lan-
8b-	-de
=4	=4
(4a-	glaubt;
4g)	.
4r}	.
{8b-	wo
8b-	man
=5	=5
8b-L	ſin-
8dJ	.
4d	-get,
8b-	wird
8b-	kein
8cc	Menſch
8dd	be-
=6	=6
2ee-	-raubt,
4r}	.
{8.b-	bö-
16b-	-ſe
=7	=7
4b-	Men-
4ee-	-ſchen
8.dd	ha-
16b-	-ben
8.a-	kei-
16f	-ne
=8	=8
4f	Lie-
4e-	-der.
4r}	.
==	==
!!!AGN: Geselligkeits - Lied, Freude
!!!GTL: Lieder der Freude und Geseligkeit
!!!ONB: ESAC (Essen Associative Code) Database: BOEHME
!!!AMT: simple quadruple
!!!AIN: vox
!!!EED: Helmut Schaffrath
!!!EEV: 1.0
!!Volksthüml. Mel. bald nach 1804.
!!@@COMMENT:"Joh. Gottfried (nicht Gottlieb) Seume. 1804. Ʒuerſt gedruckt in der "Ʒeitung für die
!!elegante Welt" 1804 Nr. 23. Das Gedicht hat dort 26 Strophen, davon die werthvollern hier
!!ausgehoben; die übrigen in hohlen Phraſen ſich ergehenden Verſe können ohne Einbuße wegbleiben."
!!@@END:
!!!Text: J. G. Seume
!!!URL-scan: https://archive.org/details/BoehmeVtLieder1895/page/n265/mode/2up
!!!ENC: Anna Maria Matuszewska
!!!EEV: 2024/04/07
*-	*-
